;FLAVOR:Marlin
;TIME:2685
;Filament used: 1.02106m
;Layer height: 0.2
;MINX:96.515
;MINY:96.513
;MINZ:0.2
;MAXX:138.488
;MAXY:138.487
;MAXZ:40
;TARGET_MACHINE.NAME:Creality Ender-3
;Generated with Cura_SteamEngine 5.8.1
M140 S50
M105
M190 S50
M104 S200
M105
M109 S200
M82 ;absolute extrusion mode
; Ender 3 Custom Start G-code
G92 E0 ; Reset Extruder
G28 ; Home all axes
G1 Z2.0 F3000 ; Move Z Axis up little to prevent scratching of Heat Bed
G1 X0.1 Y20 Z0.3 F5000.0 ; Move to start position
G1 X0.1 Y200.0 Z0.3 F1500.0 E15 ; Draw the first line
G1 X0.4 Y200.0 Z0.3 F5000.0 ; Move to side a little
G1 X0.4 Y20 Z0.3 F1500.0 E30 ; Draw the second line
G92 E0 ; Reset Extruder
G1 Z2.0 F3000 ; Move Z Axis up little to prevent scratching of Heat Bed
G1 X5 Y20 Z0.3 F5000.0 ; Move over to prevent blob squish
G92 E0
G92 E0
G1 F2700 E-5
;LAYER_COUNT:200
;LAYER:0
M107
G0 F6000 X100.532 Y100.132 Z0.2
;TYPE:SKIRT
G1 F2700 E0
G1 F1200 X101.25 Y99.473 E0.03241
G1 X102.023 Y98.881 E0.0648
G1 X102.807 Y98.381 E0.09573
G1 X103.276 Y98.124 E0.11351
G1 X103.852 Y97.827 E0.13507
G1 X104.753 Y97.414 E0.16803
G1 X105.672 Y97.089 E0.20045
G1 X106.599 Y96.85 E0.2323
G1 X107.154 Y96.746 E0.25108
G1 X107.812 Y96.643 E0.27323
G1 X108.781 Y96.535 E0.30566
G1 X109.738 Y96.513 E0.33749
G1 X110.235 Y96.536 E0.35404
G1 X112.587 Y96.692 E0.43244
G1 X115.183 Y96.797 E0.51886
G1 X117.648 Y96.828 E0.60085
G1 X120.182 Y96.786 E0.68514
G1 X122.724 Y96.673 E0.76977
G1 X124.183 Y96.568 E0.81842
G1 X124.885 Y96.528 E0.84181
G1 X125.866 Y96.518 E0.87444
G1 X126.972 Y96.612 E0.91136
G1 X127.423 Y96.676 E0.92651
G1 X128.137 Y96.798 E0.9506
G1 X129.087 Y97.02 E0.98305
G1 X130.019 Y97.328 E1.0157
G1 X131.052 Y97.782 E1.05323
G1 X131.636 Y98.076 E1.07497
G1 X132.484 Y98.554 E1.10735
G1 X133.288 Y99.106 E1.13979
G1 X134.006 Y99.696 E1.1707
G1 X134.407 Y100.073 E1.189
G1 X134.868 Y100.532 E1.21064
G1 X135.527 Y101.25 E1.24305
G1 X136.119 Y102.023 E1.27544
G1 X136.619 Y102.807 E1.30637
G1 X136.876 Y103.276 E1.32415
G1 X137.173 Y103.852 E1.34571
G1 X137.586 Y104.753 E1.37867
G1 X137.911 Y105.672 E1.41109
G1 X138.15 Y106.599 E1.44293
G1 X138.249 Y107.121 E1.46061
G1 X138.352 Y107.767 E1.48236
G1 X138.463 Y108.735 E1.51477
G1 X138.488 Y109.693 E1.54664
G1 X138.465 Y110.218 E1.56412
G1 X138.307 Y112.616 E1.64405
G1 X138.203 Y115.183 E1.7295
G1 X138.172 Y117.663 E1.81199
G1 X138.214 Y120.182 E1.89579
G1 X138.327 Y122.716 E1.98015
G1 X138.431 Y124.176 E2.02884
G1 X138.472 Y124.883 E2.05239
G1 X138.484 Y125.786 E2.08243
G1 X138.362 Y127.146 E2.12784
G1 X138.261 Y127.803 E2.14995
G1 X138.069 Y128.757 E2.18232
G1 X137.794 Y129.692 E2.21473
G1 X137.465 Y130.533 E2.24477
G1 X137.215 Y131.061 E2.2642
G1 X136.917 Y131.65 E2.28615
G1 X136.438 Y132.498 E2.31855
G1 X135.886 Y133.299 E2.3509
G1 X135.276 Y134.038 E2.38277
G1 X134.927 Y134.407 E2.39967
G1 X134.468 Y134.868 E2.4213
G1 X133.75 Y135.527 E2.45372
G1 X132.977 Y136.119 E2.4861
G1 X132.193 Y136.619 E2.51703
G1 X131.724 Y136.876 E2.53482
G1 X131.148 Y137.173 E2.55637
G1 X130.247 Y137.586 E2.58934
G1 X129.328 Y137.911 E2.62176
G1 X128.401 Y138.15 E2.6536
G1 X127.846 Y138.254 E2.67238
G1 X127.188 Y138.357 E2.69453
G1 X126.22 Y138.465 E2.72693
G1 X125.318 Y138.487 E2.75694
G1 X124.563 Y138.45 E2.78208
G1 X122.965 Y138.314 E2.83542
G1 X120.369 Y138.138 E2.92196
G1 X117.839 Y138.038 E3.00617
G1 X115.341 Y138.01 E3.08926
G1 X112.841 Y138.053 E3.17243
G1 X110.083 Y138.178 E3.26425
G1 X109.18 Y138.18 E3.29429
G1 X108.094 Y138.083 E3.33055
G1 X107.684 Y138.025 E3.34432
G1 X106.932 Y137.896 E3.3697
G1 X105.984 Y137.672 E3.4021
G1 X105.09 Y137.376 E3.43342
G1 X104.046 Y136.917 E3.47135
G1 X103.464 Y136.624 E3.49302
G1 X102.615 Y136.145 E3.52545
G1 X101.812 Y135.594 E3.55784
G1 X101.094 Y135.004 E3.58875
G1 X100.693 Y134.627 E3.60705
G1 X100.232 Y134.168 E3.62869
G1 X99.573 Y133.45 E3.6611
G1 X98.981 Y132.677 E3.69349
G1 X98.481 Y131.893 E3.72441
G1 X98.224 Y131.424 E3.7422
G1 X97.927 Y130.848 E3.76376
G1 X97.514 Y129.947 E3.79672
G1 X97.189 Y129.028 E3.82914
G1 X96.95 Y128.101 E3.86098
G1 X96.846 Y127.546 E3.87976
G1 X96.742 Y126.887 E3.90195
G1 X96.637 Y125.947 E3.93341
G1 X96.626 Y124.647 E3.97665
G1 X96.726 Y122.952 E4.03313
G1 X96.833 Y120.402 E4.11801
G1 X96.867 Y117.884 E4.20177
G1 X96.829 Y115.38 E4.28506
G1 X96.719 Y112.834 E4.36982
G1 X96.537 Y110.259 E4.45568
G1 X96.515 Y109.287 E4.48802
G1 X96.575 Y108.325 E4.52008
G1 X96.739 Y107.195 E4.55806
G1 X96.931 Y106.24 E4.59045
G1 X97.207 Y105.306 E4.62285
G1 X97.536 Y104.465 E4.65288
G1 X97.785 Y103.939 E4.67224
G1 X98.083 Y103.35 E4.69419
G1 X98.562 Y102.502 E4.72659
G1 X99.114 Y101.701 E4.75894
G1 X99.724 Y100.962 E4.79081
G1 X100.073 Y100.593 E4.80771
G1 X100.532 Y100.132 E4.82934
G0 F6000 X100.803 Y100.426
G1 F1200 X101.494 Y99.79 E4.86058
G1 X102.238 Y99.218 E4.89179
G1 X103.022 Y98.718 E4.92272
G1 X103.459 Y98.48 E4.93927
G1 X104.035 Y98.183 E4.96082
G1 X104.887 Y97.791 E4.99202
G1 X105.772 Y97.476 E5.02326
G1 X106.673 Y97.243 E5.05422
G1 X107.216 Y97.141 E5.07259
G1 X107.857 Y97.04 E5.09417
G1 X108.79 Y96.935 E5.1254
G1 X109.72 Y96.913 E5.15634
G1 X110.208 Y96.935 E5.17259
G1 X112.571 Y97.092 E5.25136
G1 X115.167 Y97.197 E5.33777
G1 X117.65 Y97.228 E5.42036
G1 X120.2 Y97.186 E5.50519
G1 X122.742 Y97.073 E5.58982
G1 X124.212 Y96.967 E5.63884
G1 X124.89 Y96.928 E5.66142
G1 X125.832 Y96.917 E5.69276
G1 X126.938 Y97.011 E5.72968
G1 X127.356 Y97.07 E5.74372
G1 X128.047 Y97.188 E5.76703
G1 X128.962 Y97.4 E5.79827
G1 X129.858 Y97.694 E5.82964
G1 X130.872 Y98.139 E5.86647
G1 X131.44 Y98.425 E5.88762
G1 X132.258 Y98.884 E5.91882
G1 X133.034 Y99.415 E5.95009
G1 X133.732 Y99.988 E5.98013
G1 X134.125 Y100.357 E5.99806
G1 X134.574 Y100.803 E6.0191
G1 X135.21 Y101.494 E6.05034
G1 X135.782 Y102.238 E6.08155
G1 X136.282 Y103.022 E6.11248
G1 X136.52 Y103.459 E6.12903
G1 X136.817 Y104.035 E6.15059
G1 X137.209 Y104.887 E6.18178
G1 X137.524 Y105.772 E6.21302
G1 X137.757 Y106.673 E6.24398
G1 X137.854 Y107.185 E6.26131
G1 X137.955 Y107.813 E6.28246
G1 X138.063 Y108.746 E6.3137
G1 X138.088 Y109.676 E6.34465
G1 X138.066 Y110.192 E6.36182
G1 X137.907 Y112.6 E6.44209
G1 X137.803 Y115.167 E6.52754
G1 X137.772 Y117.658 E6.6104
G1 X137.814 Y120.2 E6.69495
G1 X137.927 Y122.734 E6.77932
G1 X138.032 Y124.199 E6.82817
G1 X138.072 Y124.888 E6.85113
G1 X138.084 Y125.791 E6.88116
G1 X137.967 Y127.085 E6.92438
G1 X137.869 Y127.725 E6.94591
G1 X137.685 Y128.645 E6.97712
G1 X137.421 Y129.546 E7.00834
G1 X137.092 Y130.387 E7.03838
G1 X136.858 Y130.881 E7.05656
G1 X136.569 Y131.454 E7.0779
G1 X136.108 Y132.272 E7.10913
G1 X135.577 Y133.045 E7.14033
G1 X134.985 Y133.763 E7.17128
G1 X134.643 Y134.125 E7.18784
G1 X134.197 Y134.574 E7.20889
G1 X133.506 Y135.21 E7.24013
G1 X132.762 Y135.782 E7.27134
G1 X131.978 Y136.282 E7.30227
G1 X131.541 Y136.52 E7.31882
G1 X130.965 Y136.817 E7.34037
G1 X130.113 Y137.209 E7.37157
G1 X129.228 Y137.524 E7.40281
G1 X128.327 Y137.757 E7.43376
G1 X127.784 Y137.859 E7.45214
G1 X127.143 Y137.96 E7.47372
G1 X126.21 Y138.065 E7.50495
G1 X125.308 Y138.087 E7.53496
G1 X124.597 Y138.051 E7.55864
G1 X122.999 Y137.915 E7.61198
G1 X120.385 Y137.738 E7.69912
G1 X117.855 Y137.638 E7.78333
G1 X115.338 Y137.61 E7.86706
G1 X112.823 Y137.653 E7.95072
G1 X110.082 Y137.778 E8.04198
G1 X109.179 Y137.78 E8.07201
G1 X108.15 Y137.687 E8.10638
G1 X107.751 Y137.631 E8.11978
G1 X107.024 Y137.507 E8.14431
G1 X106.11 Y137.292 E8.17554
G1 X105.216 Y136.996 E8.20686
G1 X104.226 Y136.56 E8.24284
G1 X103.66 Y136.275 E8.26391
G1 X102.841 Y135.815 E8.29516
G1 X102.066 Y135.285 E8.32638
G1 X101.368 Y134.712 E8.35642
G1 X100.975 Y134.343 E8.37435
G1 X100.526 Y133.897 E8.3954
G1 X99.89 Y133.206 E8.42664
G1 X99.318 Y132.462 E8.45785
G1 X98.818 Y131.678 E8.48878
G1 X98.58 Y131.241 E8.50533
G1 X98.283 Y130.665 E8.52688
G1 X97.891 Y129.813 E8.55807
G1 X97.576 Y128.928 E8.58932
G1 X97.343 Y128.027 E8.62027
G1 X97.241 Y127.484 E8.63865
G1 X97.14 Y126.843 E8.66023
G1 X97.035 Y125.903 E8.69169
G1 X97.026 Y124.644 E8.73357
G1 X97.126 Y122.969 E8.78938
G1 X97.233 Y120.419 E8.87426
G1 X97.267 Y117.889 E8.95842
G1 X97.229 Y115.374 E9.04208
G1 X97.119 Y112.817 E9.1272
G1 X96.937 Y110.249 E9.21283
G1 X96.914 Y109.311 E9.24404
G1 X96.971 Y108.382 E9.27499
G1 X97.131 Y107.273 E9.31226
G1 X97.315 Y106.353 E9.34347
G1 X97.58 Y105.452 E9.3747
G1 X97.909 Y104.611 E9.40474
G1 X98.142 Y104.119 E9.42284
G1 X98.431 Y103.546 E9.44419
G1 X98.892 Y102.728 E9.47542
G1 X99.423 Y101.955 E9.50661
G1 X100.015 Y101.237 E9.53756
G1 X100.357 Y100.875 E9.55413
G1 X100.803 Y100.426 E9.57518
G0 F6000 X101.074 Y100.72
G1 F1200 X101.738 Y100.107 E9.60523
G1 X102.453 Y99.555 E9.63528
G1 X103.214 Y99.069 E9.66531
G1 X103.642 Y98.835 E9.68153
G1 X104.202 Y98.546 E9.70249
G1 X105.022 Y98.168 E9.73252
G1 X105.873 Y97.863 E9.76259
G1 X106.747 Y97.636 E9.79262
G1 X107.279 Y97.536 E9.81063
G1 X107.902 Y97.437 E9.83161
G1 X108.8 Y97.335 E9.86167
G1 X109.702 Y97.313 E9.89168
G1 X110.181 Y97.334 E9.90763
G1 X112.555 Y97.492 E9.98676
G1 X115.151 Y97.597 E10.07317
G1 X117.652 Y97.628 E10.15636
G1 X120.218 Y97.586 E10.24172
G1 X122.76 Y97.473 E10.32635
G1 X124.241 Y97.366 E10.37574
G1 X124.895 Y97.328 E10.39753
G1 X125.798 Y97.316 E10.42756
G1 X126.904 Y97.41 E10.46448
G1 X127.289 Y97.464 E10.47741
G1 X127.958 Y97.578 E10.49998
G1 X128.838 Y97.78 E10.53001
G1 X129.697 Y98.06 E10.56006
G1 X130.692 Y98.496 E10.5962
G1 X131.245 Y98.774 E10.61678
G1 X132.033 Y99.215 E10.64682
G1 X132.78 Y99.724 E10.67688
G1 X133.478 Y100.297 E10.70692
G1 X133.843 Y100.641 E10.7236
G1 X134.28 Y101.074 E10.74406
G1 X134.893 Y101.738 E10.77412
G1 X135.445 Y102.453 E10.80416
G1 X135.931 Y103.214 E10.83419
G1 X136.165 Y103.642 E10.85042
G1 X136.454 Y104.202 E10.87138
G1 X136.832 Y105.022 E10.90141
G1 X137.137 Y105.873 E10.93148
G1 X137.364 Y106.747 E10.96151
G1 X137.459 Y107.249 E10.9785
G1 X137.558 Y107.86 E10.99909
G1 X137.663 Y108.757 E11.02913
G1 X137.688 Y109.659 E11.05914
G1 X137.667 Y110.166 E11.07602
G1 X137.507 Y112.584 E11.15662
G1 X137.403 Y115.151 E11.24207
G1 X137.372 Y117.653 E11.32529
G1 X137.414 Y120.218 E11.41061
G1 X137.527 Y122.752 E11.49498
G1 X137.633 Y124.222 E11.544
G1 X137.672 Y124.893 E11.56635
G1 X137.684 Y125.796 E11.59639
G1 X137.572 Y127.025 E11.63743
G1 X137.477 Y127.647 E11.65836
G1 X137.301 Y128.533 E11.68841
G1 X137.048 Y129.4 E11.71845
G1 X136.719 Y130.241 E11.74848
G1 X136.501 Y130.701 E11.76541
G1 X136.22 Y131.258 E11.78616
G1 X135.778 Y132.046 E11.81621
G1 X135.268 Y132.791 E11.84624
G1 X134.694 Y133.488 E11.87627
G1 X134.359 Y133.843 E11.89251
G1 X133.926 Y134.28 E11.91297
G1 X133.262 Y134.893 E11.94303
G1 X132.547 Y135.445 E11.97307
G1 X131.786 Y135.931 E12.0031
G1 X131.358 Y136.165 E12.01933
G1 X130.798 Y136.454 E12.04029
G1 X129.978 Y136.832 E12.07032
G1 X129.127 Y137.137 E12.10038
G1 X128.253 Y137.364 E12.13042
G1 X127.721 Y137.464 E12.14842
G1 X127.098 Y137.563 E12.1694
G1 X126.2 Y137.665 E12.19946
G1 X125.298 Y137.687 E12.22947
G1 X124.631 Y137.652 E12.25169
G1 X123.033 Y137.516 E12.30503
G1 X120.401 Y137.338 E12.39277
G1 X117.871 Y137.238 E12.47698
G1 X115.335 Y137.21 E12.56134
G1 X112.805 Y137.253 E12.6455
G1 X110.081 Y137.378 E12.73619
G1 X109.178 Y137.38 E12.76623
G1 X108.205 Y137.291 E12.79872
G1 X107.818 Y137.237 E12.81172
G1 X107.115 Y137.117 E12.83544
G1 X106.235 Y136.912 E12.86549
G1 X105.377 Y136.63 E12.89553
G1 X104.406 Y136.203 E12.93081
G1 X103.855 Y135.926 E12.95132
G1 X103.066 Y135.485 E12.98139
G1 X102.32 Y134.976 E13.01142
G1 X101.622 Y134.403 E13.04146
G1 X101.257 Y134.059 E13.05814
G1 X100.82 Y133.626 E13.0786
G1 X100.207 Y132.962 E13.10866
G1 X99.655 Y132.247 E13.1387
G1 X99.169 Y131.486 E13.16874
G1 X98.935 Y131.058 E13.18496
G1 X98.646 Y130.498 E13.20592
G1 X98.268 Y129.678 E13.23595
G1 X97.963 Y128.827 E13.26602
G1 X97.736 Y127.953 E13.29605
G1 X97.636 Y127.421 E13.31406
G1 X97.537 Y126.798 E13.33504
G1 X97.435 Y125.9 E13.3651
G1 X97.426 Y124.641 E13.40697
G1 X97.526 Y122.986 E13.46212
G1 X97.633 Y120.436 E13.54701
G1 X97.667 Y117.894 E13.63156
G1 X97.629 Y115.368 E13.71559
G1 X97.519 Y112.8 E13.80108
G1 X97.337 Y110.238 E13.8865
G1 X97.313 Y109.335 E13.91655
G1 X97.368 Y108.434 E13.94657
G1 X97.428 Y107.972 E13.96207
G1 X97.523 Y107.351 E13.98296
G1 X97.699 Y106.465 E14.01301
G1 X97.953 Y105.598 E14.04306
G1 X98.282 Y104.757 E14.07309
G1 X98.499 Y104.299 E14.08995
G1 X98.78 Y103.742 E14.1107
G1 X99.222 Y102.954 E14.14075
G1 X99.732 Y102.209 E14.17078
G1 X100.306 Y101.512 E14.20081
G1 X100.641 Y101.157 E14.21704
G1 X101.074 Y100.72 E14.2375
G1 F2700 E9.2375
;MESH:tinker.obj
G0 F6000 X107.457 Y107.809
G0 X109.499 Y110.892
;TYPE:WALL-INNER
G1 F2700 E14.2375
G1 F1200 X109.926 Y110.822 E14.2519
G1 X110.313 Y110.623 E14.26637
G1 X110.622 Y110.314 E14.2809
G1 X110.822 Y109.926 E14.29542
G1 X110.892 Y109.499 E14.30981
G1 X110.822 Y109.069 E14.3243
G1 X110.622 Y108.682 E14.33879
G1 X110.314 Y108.372 E14.35333
G1 X109.928 Y108.174 E14.36776
G1 X109.499 Y108.108 E14.38219
G1 X109.067 Y108.174 E14.39673
G1 X108.682 Y108.372 E14.41113
G1 X108.372 Y108.682 E14.42571
G1 X108.175 Y109.068 E14.44012
G1 X108.108 Y109.499 E14.45463
G1 X108.174 Y109.928 E14.46907
G1 X108.372 Y110.314 E14.4835
G1 X108.681 Y110.623 E14.49803
G1 X109.069 Y110.822 E14.51253
G1 X109.499 Y110.892 E14.52702
G0 F6000 X109.499 Y111.297
;TYPE:WALL-OUTER
G1 F1200 X110.052 Y111.207 E14.54566
G1 X110.552 Y110.951 E14.56434
G1 X110.951 Y110.552 E14.58311
G1 X111.207 Y110.052 E14.60179
G1 X111.297 Y109.499 E14.62043
G1 X111.207 Y108.943 E14.63916
G1 X110.951 Y108.444 E14.65781
G1 X110.552 Y108.044 E14.67661
G1 X110.053 Y107.789 E14.69524
G1 X109.499 Y107.703 E14.71389
G1 X108.943 Y107.789 E14.7326
G1 X108.444 Y108.044 E14.75124
G1 X108.044 Y108.444 E14.77006
G1 X107.789 Y108.943 E14.78869
G1 X107.703 Y109.499 E14.80741
G1 X107.789 Y110.053 E14.82605
G1 X108.044 Y110.552 E14.84469
G1 X108.443 Y110.951 E14.86346
G1 X108.943 Y111.207 E14.88214
G1 X109.499 Y111.297 E14.90088
G0 F6000 X109.496 Y110.525
;TYPE:SKIN
G1 F1200 X109.18 Y110.471 E14.91154
G1 X108.896 Y110.328 E14.92211
G1 X108.665 Y110.097 E14.93298
G1 X108.521 Y109.813 E14.94357
G1 X108.471 Y109.497 E14.95421
G1 X108.522 Y109.18 E14.96489
G1 X108.668 Y108.892 E14.97563
G1 X108.895 Y108.665 E14.98631
G1 X109.179 Y108.521 E14.9969
G1 X109.497 Y108.472 E15.0076
G1 X109.814 Y108.521 E15.01827
G1 X110.1 Y108.664 E15.0289
G1 X110.319 Y108.891 E15.03939
G1 X110.471 Y109.185 E15.0504
G1 X110.524 Y109.497 E15.06093
G1 X110.471 Y109.812 E15.07155
G1 X110.327 Y110.097 E15.08217
G1 X110.097 Y110.328 E15.09302
G1 X109.812 Y110.471 E15.10362
G1 X109.496 Y110.525 E15.11428
G0 F6000 X108.812 Y109.943
G1 F1200 X109.049 Y110.181 E15.12545
G0 F6000 X109.718 Y110.284
G1 F1200 X108.71 Y109.276 E15.17287
G0 F6000 X108.921 Y108.921
G1 F1200 X110.071 Y110.071 E15.22696
G0 F6000 X110.285 Y109.719
G1 F1200 X109.274 Y108.708 E15.27451
G0 F6000 X109.939 Y108.807
G1 F1200 X110.17 Y109.039 E15.2854
G1 F2700 E10.2854
G0 F6000 X110.582 Y108.824
G0 X110.729 Y109.499
G0 X110.673 Y109.837
G0 X109.989 Y110.998
G0 X110.159 Y112.068
G0 X109.769 Y122.553
G0 X109.599 Y126.592
;TYPE:WALL-INNER
G1 F2700 E15.2854
G1 F1200 X110.026 Y126.522 E15.2998
G1 X110.413 Y126.323 E15.31427
G1 X110.722 Y126.014 E15.3288
G1 X110.922 Y125.626 E15.34332
G1 X110.992 Y125.199 E15.35771
G1 X110.922 Y124.769 E15.3722
G1 X110.722 Y124.382 E15.38669
G1 X110.414 Y124.072 E15.40123
G1 X110.028 Y123.874 E15.41566
G1 X109.599 Y123.808 E15.43009
G1 X109.167 Y123.874 E15.44463
G1 X108.782 Y124.072 E15.45903
G1 X108.472 Y124.382 E15.47361
G1 X108.275 Y124.768 E15.48802
G1 X108.208 Y125.199 E15.50253
G1 X108.274 Y125.628 E15.51697
G1 X108.472 Y126.014 E15.53139
G1 X108.781 Y126.323 E15.54593
G1 X109.169 Y126.522 E15.56043
G1 X109.599 Y126.592 E15.57492
G0 F6000 X109.599 Y126.997
;TYPE:WALL-OUTER
G1 F1200 X110.152 Y126.907 E15.59356
G1 X110.652 Y126.651 E15.61224
G1 X111.051 Y126.252 E15.63101
G1 X111.307 Y125.752 E15.64969
G1 X111.397 Y125.199 E15.66833
G1 X111.307 Y124.643 E15.68706
G1 X111.051 Y124.144 E15.70571
G1 X110.652 Y123.744 E15.7245
G1 X110.153 Y123.489 E15.74314
