;FLAVOR:Marlin
;TIME:1251
;Filament used: 0.431935m
;Layer height: 0.2
;MINX:105.371
;MINY:91.317
;MINZ:0.2
;MAXX:129.628
;MAXY:132.3
;MAXZ:19.8
;TARGET_MACHINE.NAME:Creality Ender-3
;Generated with Cura_SteamEngine 5.8.1
M140 S50
M105
M190 S50
M104 S200
M105
M109 S200
M82 ;absolute extrusion mode
; Ender 3 Custom Start G-code
G92 E0 ; Reset Extruder
G28 ; Home all axes
G1 Z2.0 F3000 ; Move Z Axis up little to prevent scratching of Heat Bed
G1 X0.1 Y20 Z0.3 F5000.0 ; Move to start position
G1 X0.1 Y200.0 Z0.3 F1500.0 E15 ; Draw the first line
G1 X0.4 Y200.0 Z0.3 F5000.0 ; Move to side a little
G1 X0.4 Y20 Z0.3 F1500.0 E30 ; Draw the second line
G92 E0 ; Reset Extruder
G1 Z2.0 F3000 ; Move Z Axis up little to prevent scratching of Heat Bed
G1 X5 Y20 Z0.3 F5000.0 ; Move over to prevent blob squish
G92 E0
G92 E0
G1 F2700 E-5
;LAYER_COUNT:99
;LAYER:0
M107
G0 F6000 X108.233 Y95.185 Z0.2
;TYPE:SKIRT
G1 F2700 E0
G1 F1200 X108.882 Y94.507 E0.03122
G1 X109.696 Y93.796 E0.06716
G1 X110.484 Y93.223 E0.09957
G1 X111.381 Y92.687 E0.13432
G1 X112.29 Y92.249 E0.16788
G1 X113.234 Y91.893 E0.20144
G1 X114.207 Y91.622 E0.23503
G1 X115.22 Y91.435 E0.2693
G1 X116.548 Y91.33 E0.3136
G1 X117.688 Y91.317 E0.35152
G1 X118.42 Y91.329 E0.37587
G1 X119.444 Y91.393 E0.41
G1 X120.442 Y91.545 E0.44357
G1 X121.424 Y91.786 E0.4772
G1 X122.379 Y92.113 E0.51078
G1 X123.268 Y92.506 E0.54311
G1 X124.152 Y92.993 E0.57668
G1 X125.018 Y93.577 E0.61142
G1 X125.802 Y94.215 E0.64503
G1 X126.524 Y94.919 E0.67857
G1 X127.182 Y95.683 E0.71211
G1 X127.771 Y96.503 E0.74569
G1 X128.233 Y97.278 E0.7757
G1 X128.718 Y98.286 E0.81291
G1 X129.058 Y99.197 E0.84525
G1 X129.335 Y100.205 E0.88002
G1 X129.512 Y101.175 E0.91281
G1 X129.615 Y102.474 E0.95615
G1 X129.628 Y103.537 E0.99151
G1 X129.614 Y104.331 E1.01792
G1 X129.55 Y105.336 E1.05142
G1 X129.397 Y106.336 E1.08506
G1 X129.156 Y107.314 E1.11856
G1 X128.848 Y108.224 E1.15052
G1 X128.598 Y108.817 E1.17192
G1 X128.206 Y109.68 E1.20345
G1 X127.745 Y110.577 E1.23699
G1 X127.215 Y111.419 E1.27008
G1 X126.768 Y112.023 E1.29508
G1 X126.082 Y112.832 E1.33035
G1 X125.366 Y113.54 E1.36385
G1 X124.588 Y114.184 E1.39744
G1 X123.846 Y114.698 E1.42746
G1 X122.875 Y115.251 E1.46462
G1 X121.955 Y115.666 E1.49819
G1 X121.003 Y115.999 E1.53174
G1 X120.026 Y116.247 E1.56526
G1 X119.135 Y116.394 E1.5953
G1 X117.672 Y116.482 E1.64405
G1 X117.176 Y116.48 E1.66054
G1 X116.274 Y116.436 E1.69058
G1 X115.168 Y116.282 E1.72772
G1 X114.252 Y116.07 E1.75899
G1 X113.225 Y115.735 E1.79492
G1 X112.362 Y115.365 E1.82615
G1 X111.412 Y114.853 E1.86205
G1 X110.569 Y114.295 E1.89567
G1 X109.782 Y113.667 E1.92916
G1 X109.074 Y112.993 E1.96167
G1 X108.27 Y112.073 E2.00231
G1 X107.633 Y111.194 E2.03841
G1 X107.1 Y110.304 E2.07292
G1 X106.747 Y109.588 E2.09947
G1 X106.362 Y108.731 E2.13072
G1 X106.028 Y107.892 E2.16075
G1 X105.71 Y106.823 E2.19785
G1 X105.524 Y105.896 E2.22929
G1 X105.384 Y104.4 E2.27927
G1 X105.371 Y103.661 E2.30385
G1 X105.383 Y102.579 E2.33984
G1 X105.442 Y101.554 E2.37399
G1 X105.584 Y100.591 E2.40636
G1 X105.827 Y99.575 E2.44111
G1 X106.148 Y98.618 E2.47468
G1 X106.553 Y97.693 E2.50827
G1 X107.036 Y96.81 E2.54174
G1 X107.534 Y96.057 E2.57177
G1 X108.233 Y95.185 E2.60894
G0 F6000 X108.522 Y95.462
G1 F1200 X109.171 Y94.784 E2.64016
G1 X109.931 Y94.12 E2.67372
G1 X110.719 Y93.547 E2.70613
G1 X111.555 Y93.047 E2.73853
G1 X112.432 Y92.623 E2.77093
G1 X113.342 Y92.278 E2.8033
G1 X114.28 Y92.015 E2.8357
G1 X115.252 Y91.834 E2.86858
G1 X116.58 Y91.729 E2.91289
G1 X117.682 Y91.717 E2.94954
G1 X118.396 Y91.728 E2.97329
G1 X119.384 Y91.788 E3.00622
G1 X120.347 Y91.934 E3.03861
G1 X121.295 Y92.165 E3.07107
G1 X122.217 Y92.479 E3.10346
G1 X123.106 Y92.872 E3.13579
G1 X123.929 Y93.325 E3.16703
G1 X124.766 Y93.888 E3.20059
G1 X125.523 Y94.502 E3.233
G1 X126.221 Y95.18 E3.26537
G1 X126.857 Y95.917 E3.29775
G1 X127.427 Y96.708 E3.33017
G1 X127.889 Y97.483 E3.36018
G1 X128.343 Y98.426 E3.39499
G1 X128.672 Y99.304 E3.42618
G1 X128.941 Y100.277 E3.45976
G1 X129.118 Y101.247 E3.49255
G1 X129.216 Y102.505 E3.53452
G1 X129.228 Y103.53 E3.56861
G1 X129.215 Y104.306 E3.59443
G1 X129.155 Y105.276 E3.62675
G1 X129.009 Y106.241 E3.65921
G1 X128.777 Y107.186 E3.69158
G1 X128.469 Y108.096 E3.72353
G1 X128.234 Y108.652 E3.74361
G1 X127.85 Y109.498 E3.77451
G1 X127.406 Y110.364 E3.80687
G1 X126.893 Y111.181 E3.83896
G1 X126.446 Y111.785 E3.86395
G1 X125.801 Y112.548 E3.89718
G1 X125.11 Y113.232 E3.92952
G1 X124.36 Y113.855 E3.96195
G1 X123.618 Y114.369 E3.99197
G1 X122.71 Y114.887 E4.02674
G1 X121.823 Y115.289 E4.05913
G1 X120.904 Y115.611 E4.09152
G1 X119.961 Y115.852 E4.12389
G1 X119.07 Y115.999 E4.15393
G1 X117.674 Y116.082 E4.20044
G1 X117.195 Y116.08 E4.21637
G1 X116.293 Y116.036 E4.24641
G1 X115.258 Y115.892 E4.28116
G1 X114.342 Y115.68 E4.31244
G1 X113.383 Y115.367 E4.34599
G1 X112.52 Y114.997 E4.37722
G1 X111.632 Y114.519 E4.41076
G1 X110.818 Y113.982 E4.4432
G1 X110.057 Y113.377 E4.47553
G1 X109.375 Y112.73 E4.5068
G1 X108.594 Y111.838 E4.54623
G1 X107.957 Y110.959 E4.58234
G1 X107.459 Y110.127 E4.61459
G1 X107.112 Y109.424 E4.64066
G1 X106.734 Y108.583 E4.67133
G1 X106.4 Y107.744 E4.70136
G1 X106.102 Y106.743 E4.7361
G1 X105.922 Y105.858 E4.76614
G1 X105.784 Y104.393 E4.81508
G1 X105.771 Y103.665 E4.8393
G1 X105.782 Y102.602 E4.87466
G1 X105.838 Y101.612 E4.90764
G1 X105.973 Y100.683 E4.93886
G1 X106.206 Y99.702 E4.97239
G1 X106.515 Y98.778 E5.0048
G1 X106.904 Y97.885 E5.0372
G1 X107.37 Y97.031 E5.06955
G1 X107.868 Y96.278 E5.09958
G1 X108.522 Y95.462 E5.13436
G0 F6000 X108.811 Y95.739
G1 F1200 X109.46 Y95.061 E5.16558
G1 X110.167 Y94.443 E5.19681
G1 X110.925 Y93.89 E5.22802
G1 X111.73 Y93.407 E5.25924
G1 X112.574 Y92.997 E5.29045
G1 X113.451 Y92.663 E5.32166
G1 X114.354 Y92.408 E5.35287
G1 X115.284 Y92.233 E5.38435
G1 X116.612 Y92.128 E5.42865
G1 X117.676 Y92.117 E5.46405
G1 X118.372 Y92.127 E5.4872
G1 X119.325 Y92.184 E5.51895
G1 X120.253 Y92.323 E5.55016
G1 X121.167 Y92.544 E5.58144
G1 X122.056 Y92.845 E5.61265
G1 X122.914 Y93.223 E5.64384
G1 X123.706 Y93.657 E5.67387
G1 X124.515 Y94.199 E5.70626
G1 X125.245 Y94.789 E5.73748
G1 X125.919 Y95.442 E5.76869
G1 X126.533 Y96.151 E5.79989
G1 X127.083 Y96.913 E5.83115
G1 X127.545 Y97.688 E5.86115
G1 X127.968 Y98.566 E5.89357
G1 X128.297 Y99.444 E5.92475
G1 X128.548 Y100.349 E5.95599
G1 X128.719 Y101.278 E5.98741
G1 X128.817 Y102.536 E6.02938
G1 X128.828 Y103.524 E6.06224
G1 X128.816 Y104.282 E6.08745
G1 X128.759 Y105.217 E6.11861
G1 X128.62 Y106.146 E6.14985
G1 X128.398 Y107.058 E6.18107
G1 X128.1 Y107.941 E6.21207
G1 X127.87 Y108.487 E6.23177
G1 X127.494 Y109.316 E6.26205
G1 X127.067 Y110.152 E6.29327
G1 X126.571 Y110.943 E6.32433
G1 X126.14 Y111.527 E6.34847
G1 X125.519 Y112.264 E6.38052
G1 X124.854 Y112.925 E6.41171
G1 X124.132 Y113.526 E6.44295
G1 X123.39 Y114.04 E6.47297
G1 X122.544 Y114.523 E6.50537
G1 X121.69 Y114.912 E6.53659
G1 X120.805 Y115.224 E6.5678
G1 X119.896 Y115.457 E6.59901
G1 X119.005 Y115.604 E6.62904
G1 X117.676 Y115.682 E6.67332
G1 X117.214 Y115.68 E6.68869
G1 X116.312 Y115.636 E6.71873
G1 X115.348 Y115.502 E6.7511
G1 X114.432 Y115.29 E6.78237
G1 X113.541 Y114.999 E6.81354
G1 X112.678 Y114.629 E6.84477
G1 X111.852 Y114.185 E6.87596
G1 X111.067 Y113.669 E6.90721
G1 X110.332 Y113.086 E6.93841
G1 X109.676 Y112.466 E6.96843
G1 X108.918 Y111.603 E7.00664
G1 X108.3 Y110.753 E7.04159
G1 X107.818 Y109.95 E7.07274
G1 X107.477 Y109.26 E7.09834
G1 X107.106 Y108.435 E7.12843
G1 X106.772 Y107.596 E7.15846
G1 X106.494 Y106.663 E7.19084
G1 X106.314 Y105.778 E7.22088
G1 X106.184 Y104.386 E7.26738
G1 X106.171 Y103.669 E7.29123
G1 X106.182 Y102.606 E7.32659
G1 X106.234 Y101.67 E7.35777
G1 X106.369 Y100.741 E7.38899
G1 X106.585 Y99.828 E7.42019
G1 X106.882 Y98.937 E7.45143
G1 X107.255 Y98.076 E7.48264
G1 X107.704 Y97.252 E7.51385
G1 X108.202 Y96.499 E7.54388
G1 X108.811 Y95.739 E7.57627
G0 F6000 X109.1 Y96.015
G1 F1200 X109.724 Y95.362 E7.60631
G1 X110.403 Y94.766 E7.63636
G1 X111.132 Y94.233 E7.6664
G1 X111.905 Y93.767 E7.69642
G1 X112.717 Y93.371 E7.72647
G1 X113.56 Y93.048 E7.75649
G1 X114.429 Y92.801 E7.78654
G1 X115.316 Y92.632 E7.81657
G1 X116.644 Y92.527 E7.86088
G1 X117.67 Y92.517 E7.89501
G1 X118.366 Y92.527 E7.91816
G1 X119.267 Y92.58 E7.94818
G1 X120.16 Y92.712 E7.9782
G1 X121.039 Y92.923 E8.00827
G1 X121.895 Y93.211 E8.0383
G1 X122.722 Y93.574 E8.06834
G1 X123.514 Y94.008 E8.09838
G1 X124.264 Y94.51 E8.1284
G1 X124.967 Y95.077 E8.15844
G1 X125.617 Y95.704 E8.18848
G1 X126.209 Y96.386 E8.21851
G1 X126.739 Y97.118 E8.24857
G1 X127.201 Y97.893 E8.27858
G1 X127.594 Y98.707 E8.30864
G1 X127.912 Y99.552 E8.33867
G1 X128.155 Y100.422 E8.36872
G1 X128.32 Y101.309 E8.39873
G1 X128.418 Y102.567 E8.44069
G1 X128.428 Y103.518 E8.47233
G1 X128.417 Y104.258 E8.49694
G1 X128.363 Y105.159 E8.52696
G1 X128.231 Y106.052 E8.55699
G1 X128.019 Y106.93 E8.58703
G1 X127.731 Y107.786 E8.61707
G1 X127.506 Y108.322 E8.6364
G1 X127.137 Y109.135 E8.6661
G1 X126.728 Y109.94 E8.69613
G1 X126.249 Y110.705 E8.72615
G1 X125.818 Y111.289 E8.75029
G1 X125.237 Y111.981 E8.78034
G1 X124.598 Y112.618 E8.81035
G1 X123.904 Y113.197 E8.84041
G1 X123.162 Y113.711 E8.87043
G1 X122.377 Y114.159 E8.9005
G1 X121.556 Y114.535 E8.93053
G1 X120.705 Y114.837 E8.96056
G1 X119.831 Y115.062 E8.99058
G1 X118.94 Y115.209 E9.02062
G1 X117.678 Y115.282 E9.06266
G1 X117.233 Y115.28 E9.07746
G1 X116.331 Y115.236 E9.1075
G1 X115.437 Y115.112 E9.13752
G1 X114.556 Y114.91 E9.16758
G1 X113.698 Y114.631 E9.19759
G1 X112.867 Y114.276 E9.22764
G1 X112.071 Y113.85 E9.25767
G1 X111.315 Y113.355 E9.28773
G1 X110.607 Y112.795 E9.31775
G1 X109.951 Y112.175 E9.34777
G1 X109.241 Y111.367 E9.38355
G1 X108.643 Y110.547 E9.4173
G1 X108.177 Y109.773 E9.44735
G1 X107.842 Y109.096 E9.47248
G1 X107.478 Y108.287 E9.50198
G1 X107.144 Y107.448 E9.53202
G1 X106.886 Y106.583 E9.56204
G1 X106.706 Y105.698 E9.59208
G1 X106.584 Y104.379 E9.63613
G1 X106.571 Y103.673 E9.65962
G1 X106.581 Y102.628 E9.69438
G1 X106.63 Y101.727 E9.72439
G1 X106.758 Y100.833 E9.75443
G1 X106.965 Y99.954 E9.78446
G1 X107.249 Y99.096 E9.81452
G1 X107.607 Y98.267 E9.84456
G1 X108.038 Y97.473 E9.87461
G1 X108.536 Y96.72 E9.90463
G1 X109.1 Y96.015 E9.93466
G1 F2700 E4.93466
;MESH:Office_Chair_Scaled.STL
G0 F6000 X117.814 Y102.747
G0 X117.814 Y103.642
;TYPE:WALL-OUTER
G1 F2700 E9.93466
G1 F1043.5 X117.182 Y103.642 E9.95883
G1 F2700 E4.95883
;MESH:NONMESH
G0 F300 X117.182 Y103.642 Z0.4
G0 F6000 X116.288 Y103.642
G0 X109.1 Y96.015
;TIME_ELAPSED:20.859388
;LAYER:1
;note -- min layer time used
M106 S85
;TYPE:SKIRT
G1 F2700 E9.95883
G1 F600 X109.724 Y95.362 E9.98887
G1 X110.403 Y94.766 E10.01892
G1 X111.132 Y94.233 E10.04896
G1 X111.905 Y93.767 E10.07898
G1 X112.717 Y93.371 E10.10903
G1 X113.56 Y93.048 E10.13905
G1 X114.429 Y92.801 E10.1691
G1 X115.316 Y92.632 E10.19913
G1 X116.644 Y92.527 E10.24344
G1 X117.67 Y92.517 E10.27757
G1 X118.366 Y92.527 E10.30072
G1 X119.267 Y92.58 E10.33074
G1 X120.16 Y92.712 E10.36076
G1 X121.039 Y92.923 E10.39083
G1 X121.895 Y93.211 E10.42087
G1 X122.722 Y93.574 E10.45091
G1 X123.514 Y94.008 E10.48095
G1 X124.264 Y94.51 E10.51096
G1 X124.967 Y95.077 E10.541
G1 X125.617 Y95.704 E10.57104
G1 X126.209 Y96.386 E10.60108
G1 X126.739 Y97.118 E10.63114
G1 X127.201 Y97.893 E10.66114
G1 X127.594 Y98.707 E10.69121
G1 X127.912 Y99.552 E10.72124
G1 X128.155 Y100.422 E10.75128
G1 X128.32 Y101.309 E10.78129
G1 X128.418 Y102.567 E10.82326
G1 X128.428 Y103.518 E10.85489
G1 X128.417 Y104.258 E10.8795
G1 X128.363 Y105.159 E10.90953
G1 X128.231 Y106.052 E10.93955
G1 X128.019 Y106.93 E10.96959
G1 X127.731 Y107.786 E10.99963
G1 X127.506 Y108.322 E11.01896
G1 X127.137 Y109.135 E11.04866
G1 X126.728 Y109.94 E11.07869
G1 X126.249 Y110.705 E11.10871
G1 X125.818 Y111.289 E11.13285
G1 X125.237 Y111.981 E11.16291
G1 X124.598 Y112.618 E11.19292
G1 X123.904 Y113.197 E11.22298
G1 X123.162 Y113.711 E11.253
G1 X122.377 Y114.159 E11.28306
G1 X121.556 Y114.535 E11.31309
G1 X120.705 Y114.837 E11.34313
G1 X119.831 Y115.062 E11.37315
G1 X118.94 Y115.209 E11.40318
G1 X117.678 Y115.282 E11.44522
G1 X117.233 Y115.28 E11.46003
G1 X116.331 Y115.236 E11.49006
G1 X115.437 Y115.112 E11.52008
G1 X114.556 Y114.91 E11.55014
G1 X113.698 Y114.631 E11.58015
G1 X112.867 Y114.276 E11.61021
G1 X112.071 Y113.85 E11.64024
G1 X111.315 Y113.355 E11.67029
G1 X110.607 Y112.795 E11.70031
G1 X109.951 Y112.175 E11.73034
G1 X109.241 Y111.367 E11.76611
G1 X108.643 Y110.547 E11.79987
G1 X108.177 Y109.773 E11.82992
G1 X107.842 Y109.096 E11.85504
G1 X107.478 Y108.287 E11.88454
G1 X107.144 Y107.448 E11.91458
G1 X106.886 Y106.583 E11.9446
G1 X106.706 Y105.698 E11.97464
G1 X106.584 Y104.379 E12.0187
G1 X106.571 Y103.673 E12.04218
G1 X106.581 Y102.628 E12.07694
G1 X106.63 Y101.727 E12.10695
G1 X106.758 Y100.833 E12.13699
G1 X106.965 Y99.954 E12.16703
G1 X107.249 Y99.096 E12.19709
G1 X107.607 Y98.267 E12.22712
G1 X108.038 Y97.473 E12.25717
G1 X108.536 Y96.72 E12.2872
G1 X109.1 Y96.015 E12.31722
G1 F2700 E7.31722
;MESH:Office_Chair_Scaled.STL
G0 F7500 X116.106 Y103.37
G0 X117.872 Y103.765
;TYPE:WALL-OUTER
G1 F2700 E12.31722
G1 F600 X117.844 Y103.964 E12.32391
G1 X117.5 Y103.964 E12.33535
G1 X117.152 Y103.964 E12.34692
G1 X117.124 Y103.765 E12.35361
G1 X116.968 Y103.673 E12.35963
G1 X116.968 Y103.156 E12.37683
G1 X118.028 Y103.153 E12.41208
G1 X118.028 Y103.672 E12.42934
G1 X117.872 Y103.765 E12.43539
G1 F2700 E7.43539
;MESH:NONMESH
G0 F300 X117.872 Y103.765 Z0.6
G0 F7500 X117.577 Y103.695
G0 X117.185 Y103.37
G0 X116.106 Y103.37
G0 X109.1 Y96.015
;TIME_ELAPSED:29.836057
;LAYER:2
;note -- min layer time used
M106 S170
;TYPE:SKIRT
G1 F2700 E12.43539
G1 F600 X109.724 Y95.362 E12.46543
G1 X110.403 Y94.766 E12.49548
G1 X111.132 Y94.233 E12.52551
G1 X111.905 Y93.767 E12.55553
G1 X112.717 Y93.371 E12.58558
G1 X113.56 Y93.048 E12.61561
G1 X114.429 Y92.801 E12.64565
G1 X115.316 Y92.632 E12.67569
G1 X116.644 Y92.527 E12.71999
G1 X117.67 Y92.517 E12.75412
G1 X118.366 Y92.527 E12.77727
G1 X119.267 Y92.58 E12.80729
G1 X120.16 Y92.712 E12.83731
G1 X121.039 Y92.923 E12.86738
G1 X121.895 Y93.211 E12.89742
G1 X122.722 Y93.574 E12.92746
G1 X123.514 Y94.008 E12.9575
G1 X124.264 Y94.51 E12.98751
G1 X124.967 Y95.077 E13.01755
G1 X125.617 Y95.704 E13.04759
G1 X126.209 Y96.386 E13.07763
G1 X126.739 Y97.118 E13.10769
G1 X127.201 Y97.893 E13.1377
G1 X127.594 Y98.707 E13.16776
G1 X127.912 Y99.552 E13.19779
G1 X128.155 Y100.422 E13.22783
G1 X128.32 Y101.309 E13.25784
G1 X128.418 Y102.567 E13.29981
G1 X128.428 Y103.518 E13.33144
G1 X128.417 Y104.258 E13.35606
G1 X128.363 Y105.159 E13.38608
G1 X128.231 Y106.052 E13.4161
G1 X128.019 Y106.93 E13.44614
G1 X127.731 Y107.786 E13.47618
G1 X127.506 Y108.322 E13.49552
G1 X127.137 Y109.135 E13.52521
G1 X126.728 Y109.94 E13.55524
G1 X126.249 Y110.705 E13.58526
G1 X125.818 Y111.289 E13.6094
G1 X125.237 Y111.981 E13.63946
G1 X124.598 Y112.618 E13.66947
G1 X123.904 Y113.197 E13.69953
G1 X123.162 Y113.711 E13.72955
G1 X122.377 Y114.159 E13.75961
G1 X121.556 Y114.535 E13.78965
G1 X120.705 Y114.837 E13.81968
G1 X119.831 Y115.062 E13.8497
G1 X118.94 Y115.209 E13.87973
G1 X117.678 Y115.282 E13.92178
G1 X117.233 Y115.28 E13.93658
G1 X116.331 Y115.236 E13.96661
G1 X115.437 Y115.112 E13.99663
G1 X114.556 Y114.91 E14.0267
G1 X113.698 Y114.631 E14.0567
G1 X112.867 Y114.276 E14.08676
G1 X112.071 Y113.85 E14.11679
G1 X111.315 Y113.355 E14.14684
G1 X110.607 Y112.795 E14.17687
G1 X109.951 Y112.175 E14.20689
G1 X109.241 Y111.367 E14.24266
G1 X108.643 Y110.547 E14.27642
G1 X108.177 Y109.773 E14.30647
G1 X107.842 Y109.096 E14.33159
G1 X107.478 Y108.287 E14.3611
G1 X107.144 Y107.448 E14.39113
G1 X106.886 Y106.583 E14.42115
G1 X106.706 Y105.698 E14.45119
G1 X106.584 Y104.379 E14.49525
G1 X106.571 Y103.673 E14.51873
G1 X106.581 Y102.628 E14.55349
G1 X106.63 Y101.727 E14.5835
G1 X106.758 Y100.833 E14.61354
G1 X106.965 Y99.954 E14.64358
G1 X107.249 Y99.096 E14.67364
G1 X107.607 Y98.267 E14.70367
G1 X108.038 Y97.473 E14.73372
G1 X108.536 Y96.72 E14.76375
G1 X109.1 Y96.015 E14.79378
G1 F2700 E9.79378
;MESH:Office_Chair_Scaled.STL
